X: 6243
T: Carol's Trip To Dublin
R: waltz
M: 3/4
K: Dmajor
FE|"D"D4FA|"A"e4dc|"G"B4cd|"F#m"AF3FG|"D"A4FE|"Bm"D4EF|"Em"G4AF|"A7"E4 FE|
"D"D4FA|"A"e4dc|"G"B4cd|"F#m"AF3FE|"D"D4EF|"G"G4FE|"A7"D2E2C2|"D"D4 FA|
"G"B4cB|"F#m"B2A2FA|"Bm"d4cB|"F#m"B2A4|"G"Bc dc Bc|"D"BA GF ED|"Em"EF GA GF|"A7"FE3 FE|
"D"D4FA|"A"e4dc|"G"B4cd|"F#m"AF3FE|"D"D4EF|"G"G4FE|"A7"D2E2C2|"D"D4||

